Adwaita++/actions/22/kt-add-filters.svg

<svg height="22" viewBox="0 0 22 22" width="22" xmlns="http://www.w3.org/2000/svg">
  <path d="m0 2 4 4 .0195312 4 .96875 4 1.0117188-4v-4l4-4zm10 4v2h-2v2h2v2h2v-2h2v-2h-2v-2z" fill="#444" transform="translate(3 3)"/>
</svg>

<svg xmlns="http://www.w3.org/2000/svg" width="22" height="22" viewBox="0 0 22 22">
 <defs>
  <style id="current-color-scheme" type="text/css">
   .ColorScheme-Text { color:#444444; } .ColorScheme-Highlight { color:#4285f4; }
  </style>
 </defs>
 <path style="fill:currentColor" class="ColorScheme-Text" d="M 0 2 L 4 6 L 4.0195312 10 L 4.9882812 14 L 6 10 L 6 6 L 10 2 L 0 2 z M 10 6 L 10 8 L 8 8 L 8 10 L 10 10 L 10 12 L 12 12 L 12 10 L 14 10 L 14 8 L 12 8 L 12 6 L 10 6 z" transform="translate(3 3)"/>
</svg>
